icons/communication/message-arrow-left-alt-1-24.svg

<svg width="24" height="24" viewBox="0 0 24 24" fill="none" xmlns="http://www.w3.org/2000/svg">
<path d="M18.7776 21.6389L16.6427 19.2947H22.2526C22.4508 19.2947 22.6409 19.2115 22.7811 19.0634C22.9213 18.9154 23 18.7146 23 18.5052C23 18.2958 22.9213 18.095 22.7811 17.9469C22.6409 17.7989 22.4508 17.7157 22.2526 17.7157H16.6427L18.7776 15.3715C18.8504 15.301 18.9093 15.216 18.9508 15.1213C18.9923 15.0267 19.0157 14.9243 19.0195 14.8201C19.0233 14.7158 19.0076 14.6118 18.9731 14.5141C18.9387 14.4163 18.8862 14.3267 18.8188 14.2505C18.7514 14.1743 18.6703 14.1129 18.5803 14.07C18.4903 14.027 18.3932 14.0034 18.2944 14.0003C18.1957 13.9973 18.0974 14.015 18.0052 14.0523C17.913 14.0896 17.8287 14.1459 17.7572 14.2178L14.2371 17.9283C14.1623 18.0022 14.1026 18.0915 14.0618 18.1907C14.021 18.29 14 18.397 14 18.5052C14 18.6134 14.021 18.7204 14.0618 18.8196C14.1026 18.9188 14.1623 19.0082 14.2371 19.082L17.7572 22.7926C17.9024 22.9331 18.0943 23.0075 18.2911 22.9994C18.4879 22.9913 18.6738 22.9015 18.8083 22.7495C18.9428 22.5975 19.015 22.3955 19.0092 22.1875C19.0035 21.9795 18.9203 21.7824 18.7776 21.6389Z" fill="black"/>
<path d="M12.5 3.5C8.08173 3.5 4.50001 7.08172 4.50001 11.5C4.50001 12.7385 4.78091 13.9092 5.28177 14.9539C5.39825 15.1969 5.37227 15.4713 5.23708 15.6828L3.80161 19.0948L8.34898 18.5132C8.48487 18.4958 8.61691 18.516 8.73469 18.5656C8.75906 18.5752 8.78317 18.5862 8.80691 18.5986C9.1186 18.7611 9.44235 18.9037 9.77652 19.0247C10.1745 19.1687 10.4178 19.5893 10.2991 19.9955C10.1855 20.3839 9.78254 20.6145 9.40009 20.4825C9.02686 20.3537 8.6641 20.2023 8.3135 20.03L3.13105 20.6928C2.36666 20.7906 1.7836 20.0234 2.08244 19.3131L3.78057 15.2767C3.27821 14.1184 3.00001 12.8408 3.00001 11.5C3.00001 6.25329 7.2533 2 12.5 2C17.4943 2 21.5885 5.85392 21.9708 10.7501C22.0031 11.163 21.6642 11.5 21.25 11.5C20.8358 11.5 20.5037 11.1631 20.4654 10.7507C20.0876 6.68377 16.6656 3.5 12.5 3.5Z" fill="black"/>
</svg>

<svg xmlns="http://www.w3.org/2000/svg" width="24" height="24"><path d="M18.778 21.639l-2.135-2.344h5.61a.728.728 0 00.528-.232.812.812 0 00.219-.558c0-.21-.079-.41-.219-.558a.728.728 0 00-.528-.231h-5.61l2.135-2.345a.825.825 0 00.041-1.121.75.75 0 00-.239-.18.714.714 0 00-.823.148l-3.52 3.71a.792.792 0 00-.175.263.828.828 0 00.175.891l3.52 3.71a.723.723 0 00.534.207.731.731 0 00.517-.25.815.815 0 00.201-.561.81.81 0 00-.231-.55z"/><path d="M12.5 3.5a8 8 0 00-7.218 11.454.75.75 0 01-.045.729l-1.435 3.412 4.547-.582a.746.746 0 01.458.086c.312.162.635.305.97.426.398.144.64.564.522.97-.114.389-.516.62-.899.488a9.461 9.461 0 01-1.087-.453l-5.182.663a1 1 0 01-1.049-1.38l1.699-4.036A9.5 9.5 0 0112.5 2c4.993 0 9.087 3.854 9.47 8.75.032.413-.307.75-.721.75s-.746-.337-.785-.75A8 8 0 0012.5 3.5z"/></svg>
